build/img/icon-html.svg

<svg width="19" height="20" viewBox="0 0 19 20" fill="none" xmlns="http://www.w3.org/2000/svg">
<path d="M9.31152 16.178L13.9315 14.922L14.5545 8.144H6.33752L6.13352 5.89H14.7595L14.9865 3.679H3.63652L4.27252 10.357H12.0925L11.8315 13.223L9.31152 13.89L6.79152 13.223L6.63352 11.379H4.36352L4.69252 14.923L9.31152 16.178ZM0.311523 0H18.3115L16.6885 18L9.31152 20L1.93452 18L0.311523 0Z" fill="#607B96"/>
</svg>

<svg width="19" height="20" fill="none" xmlns="http://www.w3.org/2000/svg"><path d="M9.312 16.178l4.62-1.256.623-6.778H6.338L6.134 5.89h8.625l.227-2.211H3.636l.637 6.678h7.82l-.261 2.866-2.52.667-2.52-.667-.158-1.844h-2.27l.329 3.544 4.619 1.255zM.312 0h18l-1.623 18-7.377 2-7.377-2L.312 0z" fill="#607B96"/></svg>
